!!!!SEGMENT: pl-sa--l-1636--112_anonim--gloria.krn
!!!cenid: 17xx:819
!!!COM: Anonim
!!!COM-rismid: pe30004985
!!!CDT:
!!!CNT:
!!!OTL: Gloria
!!!PDT:
!!!AGN: Sacred; Mass section
!!!SMS-siglum: PL-SA
!!!SMS-shelfmark: L 1636
!!!SMS-shelfwork: 112 W
!!!SMS-variant:
!!!SMS-altvar:
!!!NIFC-rismid: 1001087591
!!!system-decoration: {(s1,s2)}
**kern	**kern	**text
*part1	*part1	*part1
*staff2	*staff1	*staff1
*Iorgan	*Iempty	*
*I"Organo	*	*
*I'Org.	*	*
*clefF4	*clefC1	*
*k[b-]	*k[b-]	*
*F:	*F:	*
*M4/4	*M4/4	*
*met(c)	*met(c)	*
*MM400	*MM400	*
=1	=1	=1
*2\right	*2\right	*
!LO:TX:a:t=P:wszystkie nuty mają caudy z prawej strony:problem	!LO:TX:a:t=P:wszystkie nuty mają caudy z prawej strony:problem	!
4FF/	1c	Gra-
4GG/	.	.
4AA/	.	.
4BB-/	.	.
*	*lig	*
!	!LO:N:vis=1	!
4C/	2f/	-ti-
4BB-/	.	.
!	!LO:N:vis=1	!
4AA/	2e/	-as
4GG/	.	.
*	*Xlig	*
2FF/	1f	.
2F\	.	.
4C\	1g	.
4D\	.	.
4E\	.	.
4C\	.	.
=2	=2	=2
*	*lig	*
2F\	1a	a-
4E\	.	.
4D\	.	.
2E\	1g	.
2C\	.	.
2D/	1f	-gi-
2BB-/	.	.
2C/	1e	.
2AA/	.	.
*	*Xlig	*
4FF/	1f	-mus
4GG/	.	.
4AA/	.	.
4BB-/	.	.
*	*lig	*
2C/	1g	ti-
2GG/	.	.
!LO:SIC:s=1D:v	!	!
1D#i	1f	.
*	*Xlig	*
0GG	1g	-bi
.	1g	.
=3	=3	=3
2C/	1g	p(ro)-
2GG/	.	.
2C/	1c	-pter
2AA/	.	.
1GG	1d	mag-
1C	1c	-nam
!!LO:LB:g=original
=4	=4	=4
*	*lig	*
2G\	1g	glo-
2E-X\	.	.
4GG/	1b-	.
4AA/	.	.
4BB-/	.	.
4C/	.	.
*	*Xlig	*
1D	1a	-ri-
*	*lig	*
2G\	1b-	-am
2E-Xi\	.	.
2F\	1cc	.
2C/	.	.
1GG	1b-	tu-
0C	1cc	.
*	*Xlig	*
.	1cc	-am
=5	=5	=5
2F\	1f	D(omi)-
4E\	.	.
4D\	.	.
2C/	1e	-ne
2AA/	.	.
2BB-/	1d	.
2GG/	.	.
*	*lig	*
4FF/	1f	De-
4GG/	.	.
4AA/	.	.
4BB-/	.	.
0C	1g	.
*	*Xlig	*
.	1g	-us
=6	=6	=6
*	*lig	*
2F\	1a	Rex
4E\	.	.
4D\	.	.
2E\	1g	.
2C/	.	.
2D/	1f	.
2BB-/	.	.
2C/	1e	Cae-
2AA/	.	.
*	*Xlig	*
2D/	1f	-le-
2BB-/	.	.
*	*lig	*
1C	1g	.
2D	1f	.
2GG/	.	.
!LO:SIC:s=2D:v	!	!
2D#Xi\	1g	.
*	*Xlig	*
!LO:N:vis=1	!	!
2GG	.	.
1C	1c	-stis
!!LO:LB:g=original
=7	=7	=7
1BB-	1d	De-
2D/	1f	-us
2BB-/	.	.
2C/	1g	Pa-
2GG/	.	.
*	*lig	*
1BB-	1f	-ter
2C/	1e	.
2AA/	.	.
2BB-/	1d	.
2GG/	.	.
2C/	1c	.
2GG/	.	.
*	*Xlig	*
=8	=8	=8
1GG	1d	o-
*	*lig	*
4BB-/	1f	-mni-
4C/	.	.
4D/	.	.
4BB-/	.	.
!	!LO:SIC:s=1c:v	!
2C/	1d	.
2AA/	.	.
*	*Xlig	*
!	!LO:SIC:s=1f:v	!
1FF	1g	.
*	*lig	*
4FF/	1b-	-po-
4AA/	.	.
4BB-/	.	.
4C/	.	.
1D	1a	.
*	*Xlig	*
1GG	1b-	-tens
1C	1cc	.
=9	=9	=9
4FF/	1g	D(omi)-
4AA/	.	.
4BB-/	.	.
4C/	.	.
1D	1f#X	-ne
1GG	1g	.
2G\	1g	Fi-
4F\	.	.
4E\	.	.
1D	1f#X	-li
!!LO:PB:g=original
=10	=10	=10
1G	1g	u-
4E-X\	1b-	-ni-
4F\	.	.
4G\	.	.
4E-\	.	.
*	*lig	*
4F\	1cc	-ge-
4E-\	.	.
4D\	.	.
4C\	.	.
!LO:N:vis=4	!	!
2BB-/	1b-	-ni-
2GG/	.	.
*	*Xlig	*
1FF	1a	-te
2BB-/	1f	.
2D/	.	.
=11	=11	=11
1C	1g	Ie-
1GG	1b-	-su
0BB-	1f	Chri-
*	*lig	*
.	1d	.
2C/	1e-Xi	.
4BB-/	.	.
4AA/	.	.
1GG	1d	-ste
!	!LO:TX:a:t=P:w źródle tajemniczy znak nad nutą 1c:problem	!
1C	1c	.
*	*Xlig	*
=12||	=12||	=12||
4FF/	1f	Quo-
4GG/	.	.
4AA/	.	.
4BB-/	.	.
2C/	1e	-ni-
4BB-/	.	.
4AA/	.	.
1GG	1d	-am
=13	=13	=13
*	*lig	*
2D/	1f	tu
2BB-/	.	.
2C/	1g	.
2GG/	.	.
4FF/	1a	ſo-
4GG/	.	.
4AA/	.	.
4BB-/	.	.
2C/	1g	.
2GG/	.	.
!!LO:LB:g=original
2D/	1f	-lus
2BB-/	.	.
2C/	1e	.
2AA/	.	.
*	*Xlig	*
2D/	1f	ſanc-
2BB-/	.	.
*	*lig	*
2C/	1g	.
2GG/	.	.
1D#Xi	1f#Xi	.
*	*Xlig	*
1GG	1g	-tus,
=14	=14	=14
*	*lig	*
0C	1c	tu
.	1g	.
*	*Xlig	*
4F\	1f	ſo-
4E\	.	.
4D\	.	.
4C\	.	.
2BB-/	1b-X	-lus
2FF/	.	.
4FF/	1a	.
4GG/	.	.
4AA/	.	.
4FF/	.	.
*	*lig	*
4GG/	1b-	Do-
4AA/	.	.
4BB-/	.	.
4GG/	.	.
2C/	1g	.
2GG/	.	.
*	*Xlig	*
1D	1f#X	-mi-
1GG	1g	-nus,
=15	=15	=15
*	*lig	*
4C\	1g	tu
4D\	.	.
4E\	.	.
4C\	.	.
2F\	1cc	.
2C/	.	.
*	*Xlig	*
1GG	1bn	So-
1C	1cc	-lus
*	*lig	*
4BB-/	1dd	Al-
4C/	.	.
4D/	.	.
4E/	.	.
4F\	1cc	.
4E\	.	.
4D\	.	.
4C\	.	.
*	*Xlig	*
!!LO:LB:g=original
2BB-/	1b-	-tis-
2GG/	.	.
4AA/	1a	-si-
4BB-/	.	.
4C/	.	.
4D/	.	.
1C	1g	-mus
=16	=16	=16
*	*lig	*
2D/	1f	Ie-
2BB-/	.	.
2C/	1e	-su
2AA/	.	.
2BB-/	1d	.
2GG/	.	.
*	*Xlig	*
2AA/	1c	Chri-
2FF/	.	.
*	*lig	*
1GG	1c	-ste
*	*Xlig	*
!LO:TX:a:t=P:w źródle brak kreski końcowej:problem	!LO:TX:a:t=P:w źródle brak kreski końcowej:problem	!
==	==	==
*-	*-	*-
!!title: @{OTL};
!!!RDF**kern: > = above
!!!RDF**kern: < = below
!!!RDF**kern: i = editorial accidental
!!!EED: Wojciech Jakubiak-Danek
!!!EST: 2020-12-08
!!!URL-scan: http://repozytorium.nifc.pl/skany/pl-sa-nut--l1636
!!!ONB-nifc: 60v-61r, skan 0048 (s. 2-7)
!!!AIN: 1 organ
!!!ENC: Marcin Jachim
!!!END: 2020-06-14
